X:1
T:George Whitefield Chadwick
T:The Lamb
T:Copyright © 2016 by the Choral Public Domain Library (http://www.cpdl.org)
T:Copyright © 2016 by the Choral Public Domain Library (http://www.cpdl.org)
T:Copyright © 2016 by the Choral Public Domain Library (http://www.cpdl.org)
Z:Copyright © 2016 by the Choral Public Domain Library (http://www.cpdl.org)
%%score ( 1 2 3 ) 4 { ( 5 6 ) | ( 7 8 ) }
L:1/8
Q:1/4=120
M:6/8
K:D
V:1 treble nm="Part_1"
V:2 treble 
V:3 treble 
V:4 treble nm="Part_3"
V:5 treble nm="Part_3"
V:6 treble 
V:7 bass 
V:8 bass 
V:1
"^Andantino" z!pp! [FA][FA] [FB]2 F | [FA]3 [EA]3 | z [FA][Fd] [FB]2 F | A3 [EA]3 | %4
w: 1. Lit- tle lamb, who|made thee?|Dost thou know who|made thee?|
w: 2. Lit- tle lamb, I'll|tell thee;|Lit- tle lamb, I'll|tell thee?|
!p! [DF]2 [DF] [FA]2 [FA] | ([DF]>[EG])[FA] (A2 B) | [EG]2 [EG] [GB]2 [GB] |!<(! (G>A)B B3!<)! | %8
w: Gave thee life and|bade _ thee feed *|By the stream and|o'er _ the mead ;|
w: He is call- ed|by * thy name, *|For He calls Him-|self * a Lamb ;|
!f! [Ae]2 [Ad] [Gc]2 [GB] | (Ac)[GB]!>(! (([FA]2!>)! [EG])) |!p! F2 F B2 B | (E>F)G F3 | %12
w: Gave thee cloth- ing|of _ de- light, *|Soft- est clo- thing|wool- * ly bright ;|
w: He is meek and|He * is mild, *|He be- came a|lit- * tle child.|
!p! F2 ^E F2 E | F2 [Fd] (c2 B) | A2!<(! ^G A2!<)! [df] | [df][ce][Bd] [Ac]3 | %16
w: Gave thee such a|ten- der voice, _|Mak- ing all the|vales * re- joice?|
w: I a child and|hou a lamb, *|We are call- ed|by * His name.|
 z!p! [Fd][FA] [FB]2 F | A3 [EA]3 |1 z [FA][Fd] [GB]2 F | A6 | D6 | z6 :|2 z BF G2 D ||!pp! E6 | %24
w: Lit- tle lamb, *|* thee?|Lit- tle lamb, who|made|thee?||Lit- tle lamb, God|bless|
w: Lit- tle lamb, *|* thee,|(Omit. . * *||||||
 A6 | z6 |] %26
w: thee.||
w: ||
V:2
 x6 | x6 | x5 F | ([DF]>ED) x3 | x6 | x3 F3 | x6 | (G>A)B B3 | x6 | G2 x4 | F2 F B2 B | (E>F)G F3 | %12
 F2 ^E F2 E | F2 x ^G3 | x3 A2 x | x6 | x5 F | F>ED x3 |1 x5 F | (F3 E3) | x6 | x6 :|2 x2 F G2 D || %23
 E6 | F6 | x6 |] %26
V:3
 x6 | x6 | x6 | x6 | x6 | x6 | x6 | x6 | x6 | x6 | F2 A4 | x6 | x6 | x6 | x6 | x6 | x6 | x6 |1 x6 | %19
 x6 | x6 | x6 :|2 x6 || x6 | x6 | x6 |] %26
V:4
 z!pp! DD D2 D | D3 C3 | z DD D2 D | (D>CB,) C3 |!p! D2 D C2 C | D2 D (C2 B,) | E2 E D2 D | %7
w: Lit- tle lamb, who|made thee?|Dost thou know who|made _ _ thee|Gave thee lite and|bade thee feed *|By the stream and|
w: 2. Lit- tle lamb, I'll|tell thee;|Lit- tle lamb, I'll|tell _ _ thee?|He is call- ed|by thy name, *|For He calls Him-|
!<(! (E>F)G!<)! G3 |!f! G2 F E2 D | (CE)D!>(! C3!>)! | D2 D G2 G | C2 C F3 |!p! D2 C D2 D | %13
w: o'er * the mead ;|Gave thee cloth- ing|of _ de- light,|Soft- est cloth- ing|wool- ly bright;|Gave thee such a|
w: self * a Lamb ;|He is meek and|He * is mild,|He be- came a|lit- tle child.|I a child and|
 D2 F (E2 D) | C2 C A2 A |!f! ^G2 !courtesy!^G A3 | z!p! DD D2 D | D>CB, C3 |1 z DD D2 D | C6 | %20
w: ten- der voice, *|Mak- ing all the|vales re- joice?|Lit- tle lamb, who|made * * thee?|Lit- tle lamb, who|made|
w: hou a lamb, *|We are call- ed|by His name.|Lit- tle lamb, thee,|(Omit. * * .|Lit- tle lamb, I'll||
 D6 | z6 :|2 z ^DD E2 =D || D6 | D6 | z6 |] %26
w: thee?||Lit- tle lamb, God|bless|thee.||
w: ||||||
V:5
!pp! x6 | ([DF]3 [A,CE]3) | x6 | [DF]>[CE]D [CE]3 | x6 | x6 | x6 | x6 | x6 | x6 | x6 | C2 C x3 | %12
 x6 | x3 [D^G]3 | z!<(! [CE][CE] z!<)! [DF][DF] |!f! ^G3!>(! C3!>)! |!p! x6 | %17
 [DF]>[CE][B,D] [CE]3 |1 x6 | x6 | x3 G3 | x6 :|2 x6 ||!pp! x6 | x3 F3 | x6 |] %26
V:6
 [DFA]3 [B,DFB]3 | A6 | [DFA]3 [B,DFB]3 | A6 | z!p! (A,[DF]) ([CF]A,A) | z (A,[DF]) ([CF]A,F) | %6
 z (B,[EG]) ([EG]B,B) | z (B,[EG]) ([EG]B,B) | z!f! A[Fd] [Ec]G[DB] | [GA]C[GB]!>(! [FA]C!>)![EG] | %10
 [DF]B,[DF] z [DGB]B, | E>FG [CF]3 | z!p! [DF][C^E] z [DF][DE] | z [DF][Fd] c2 B | A2 ^G A2 d | %15
 ([Fd][Ec][DB] A!courtesy!^G=G) | [DF]>[DF][DF]- [DF]>[DF][DF] | c6 |1 z [A,DF][DFA] [DGB]2 [DF] | %19
 z ([CFA]A,) z ([CEA]A,) | D>EF B>de | [Fdf]6 :|2 z [A,^DB][A,DF] [G,EG]B,=D || %23
 [!courtesy!_B,DE]6 | (D>EF B>cd) | [Fdf]6 |] %26
V:7
 z6 | z6 | z6 | A,,6 | [D,,A,,]6 | [D,,A,,]6 | [D,,D,]6 | [D,,D,]6 | (A,,3 A,3) | (A,,3 A,3) | %10
 (B,3 E,3) | x2 B,2 x2 | (B,3 A,3) | [E,^G,]3 [E,,E,]F,G, | A,3 F,E,D, | E,2 E,, A,,3 | %16
 B,,B,A, ^G,3 | (A,3 A,,3) |1 F,,3 E,,2 B,, | (A,,3 A,,,3) | [F,A,]3 [G,B,]3 | [D,A,]6 :|2 %22
 F,,3 E,,2 G,, || G,,6 | A,3 B,3 | [D,A,]6 |] %26
V:8
 x6 | x6 | x6 | x6 | x6 | x6 | x6 | x6 | x6 | x6 | x6 | G,>F,E, [F,^A,]3 | B,,6 | x6 | x6 | x6 | %16
 x6 | x6 |1 x6 | x6 | D,6 | x6 :|2 x6 || x6 | D,6 | x6 |] %26

